X: 1
T: Erin Shore
C: The Corrs
M: 6/8
L: 1/4
K: D
z4zd|a3/2b/=c'a2d|az/2b/2a/4fg/2a/2g/4fd|=c=z/2d/2c/4B/c/d2e|d4zd'| \
b3/2a/ga3/2b/=c'|d'3/2=c'/ba2d'|=c'3/2b/a/2b/2a/4gde|=c4=zd'| \
b3/2a/ga3/2b/=c'|d'3/2=c'/ba2d'|=c'3/2b/a/2b/2a/4gde|=c4=zd| \
a3/2b/=c'a2d|az/2b/2a/4fg/2a/2g/4fd|=c=z/2d/2c/4B/c/d2e|d6| \
